**kern	**kern
*staff1	*staff1
*head1[head1]	*head1[head1]
*solo1[solo1]	*solo1[solo1]
*solo2[solo2]	*solo2[solo2]
*solo3[solo3]	*solo3[solo3]
*clefG2	*clefG2
*k[]	*k[]
*B-:	*B-:
*M4/4	*M4/4
*>head1	*>head1
{8B-/L	.
8A/J	.
=1	=1
8B-/L	1A-:maj
8f/	.
8e/	.
8f/J	.
8d/	.
4B-/	.
[8d/	.
=2||	=2||
8d/L]	1A-:maj
8c/J	.
4r	.
4r	.
8B-/L	.
8A/J	.
=3	=3
8B-/L	1A-:maj
8F/	.
8E/	.
8F/J	.
8d/	.
4f/	.
[8g-/	.
=4	=4
8g-/L]	1A-:maj
8c/J	.
4r	.
4r	.
8B-/L	.
8A/J	.
=5	=5
4B-/	1A:maj
8r	.
8F/	.
4B-/	.
4B-/	.
=6	=6
8r	1A-:maj
4B-/	.
8G/	.
8d/L	.
8c/	.
8F/	.
8G/J	.
=7	=7
8d/L	1A-:maj
8B-/	.
8c/	.
8B-/J	.
8d/L	.
8E-/J}	.
8r	.
*>solo1	*>solo1
{16dd\LL	.
16cc\JJ	.
=8	=8
8b-/L	1A-:maj
8g/	.
8e-/	.
8c/J	.
8d-/L	.
8B-/	.
8G/	.
8A/J	.
=9	=9
8c/L	1B-:maj
8B-/J	.
16A/LL	.
16c/	.
16e-/	.
16g-/JJ	.
4f/}	.
4r	.
=10||	=10||
8r	1B-:maj
{8c#/	.
12d/L	.
12f/	.
12a/J	.
8cc/L	.
8b-/	.
8a/	.
8g/J	.
=11	=11
8b-/L	1E-:min
8g-/J}	.
4r	.
4r	.
8r	.
{[8dd-\	.
=12	=12
4dd-\]	1E-:min
8cc\L	.
8b\J	.
8b-/L	.
8g-/	.
8e-/	.
8d-/J	.
=13	=13
8d/L	1B-:maj
8B-/	.
8G/	.
8A/J	.
8c/L	.
8B-/	.
8A/	.
8B-/J	.
=14	=14
8e-/L	1B-:maj
8g-/	.
8e-/	.
8en/J	.
4f/	.
8r	.
16gn/LL	.
16g#/JJ	.
=15	=15
8a/L	1D:min
8f/J}	.
4r	.
4r	.
8r	.
{16e/LL	.
16f/JJ	.
=16	=16
16g/LL	1G:dom
16a/	.
16b/	.
16cc/JJ	.
16ee\LL	.
16dd\	.
16cc#\	.
16dd\JJ	.
8gg\}	.
8r	.
4r	.
=17	=17
8r	1C:min
{16c/LL	.
16e-/JJ	.
12g\L	.
12b-\	.
12dd\J	.
8ff\L	.
8ee-\	.
8dd\	.
8cc\J	.
=18||	=18||
8b-/L	1A-:dom
8g/	.
8e-/J	.
8r	.
8dd\L	.
8dd-\	.
8cc\	.
8bn\J	.
=19	=19
8b-/L	1B-:maj
8g-/	.
8e-/	.
8c/J	.
8d/L	.
8B-/	.
8G/	.
8A/J	.
=20	=20
8c/L	1B-:maj
8d/	.
8e-/	.
16f/L	.
16e-/JJ	.
8d/L	.
8c/	.
8B/	.
8d/J	.
=21	=21
8f/L	1C:dom
8a-/	.
8g/	.
8f/J	.
12e/L	.
12g/	.
12b-/J	.
8dd/L	.
8g/J	.
=22	=22
8a/L	1C:dom
8cc/	.
8b-/	.
8a/J	.
8g/L	.
8f/	.
8e/	.
8c/J	.
=23	=23
8c#/L	1C:min
8d/	.
8B-/	.
8G/J	.
8c#/L	.
8A/J	.
12e/L	.
12g/	.
12b-/J	.
=24	=24
8dd\L	1F:dom
8cc\	.
8dd\	.
[8cc\J	.
8cc\]}	.
8r	.
*>solo2	*>solo2
{[4d/	.
=25	=25
4d/]	1B-:maj
12f/L	.
12g/	.
12a/J	.
8cc/L	.
8b-/	.
8a/	.
8g/J	.
=26||	=26||
2a/}	1B-:maj
2r	.
=27	=27
2r	1E-:min
4r	.
8r	.
{[8cc\	.
=28	=28
8cc\]	1E-:min
8r	.
4r	.
8r	.
8dd\L	.
8ee-\	.
8ff\J	.
=29	=29
8dd\L	1B-:maj
8cc\	.
8b-\	.
8a\J	.
8cc\L	.
8b-\	.
8a\	.
8b-\J	.
=30	=30
8dd/L	1B-:maj
8f/J}	.
4r	.
2r	.
=31	=31
1r	1E-:min
=32	=32
8r	1E-:min
{8c#/L	.
8d/	.
8e/J	.
8f/L	.
8g/	.
8a-/	.
8g/J	.
=33	=33
8f/L	1B-:maj
8e-/	.
8d/	.
8B/J	.
4c/}	.
4r	.
=34	=34
8r	1B-:maj
{8d/L	.
8e-/	.
8f/J	.
24g/LL	.
24a-/	.
24g/JJ	.
8g-/L	.
8f/	.
8e-/J	.
=35	=35
8d/L	1D:min
8B-/	.
8G/	.
8A/J	.
8c/L	.
8B-/	.
8A/	.
8B-/J	.
=36	=36
8d/L	1G:dom
8e-/	.
8d/	.
8c/J	.
8B/L	.
8a-/	.
8f/	.
8f#/J	.
=37	=37
8g/L	1C:min
8f/J	.
12e/L	.
12g/	.
12b-/J	.
8dd/L	.
8g/	.
8a/	.
8cc/J	.
=38	=38
8b-/L	1A-:dom
8a/	.
8g/	.
8f/J	.
8e-/L	.
8c/	.
8f/	.
8e-/J	.
=39	=39
8d/L	1B-:maj
8B-/	.
8G/	.
8A/J	.
8c/L	.
8B-/J}	.
4r	.
=40	=40
2r	2C:min
{4f/	2F:dom
4b-\	.
=41	=41
*>solo3	*>solo3
8dd\L	1B-:maj
8ee-\	.
8dd\	.
8cc\J	.
8b-\L	.
8a\	.
8cc\	.
8b-\J}	.
=42||	=42||
2r	1B-:maj
{8f\L	.
8b-\	.
8dd\	.
[8ee-\J	.
=43	=43
8ee-\L]	1E-:min
8ee-\	.
8dd\	.
[8g-\J	.
4g-/]}	.
4r	.
=44	=44
2r	1E-:min
4r	.
{8gg\L	.
8gg-\J	.
=45	=45
8ff\	1B-:maj
8r	.
8b-\L	.
[8ee-\J	.
8ee-/L]	.
8e/	.
8f/	.
8cc/J	.
=46	=46
8b-/L	1B-:maj
8c#/	.
8d/	.
8g/J	.
4f/}	.
4r	.
=47	=47
{16d/LL	1D:min
16e/	.
16f/	.
16g/JJ	.
16a\LL	.
16b\	.
16cc\	.
16ee\JJ	.
24cc#\LL	.
24dd\	.
24ee\JJ	.
8gg\}	.
4r	.
=48	=48
4r	1G:dom
8r	.
{16c/LL	.
16e-/JJ	.
12g\L	.
12b-\	.
12dd\J	.
8ff\L	.
8ee-\J	.
=49	=49
8dd\L	1C:min
8cc\	.
8b-\	.
8b-\J	.
8a/L	.
8g/	.
8e-/	.
8c/J	.
=50||	=50||
8f/L	1A-:dom
8e-/	.
8B-/	.
8G/J	.
8G-/L	.
8e-/	.
8c/	.
8c#/J	.
=51	=51
8d/L	1B-:maj
8B-/	.
8G/	.
8A/J	.
8c/L	.
8d/	.
8e-/	.
8f/J	.
=52	=52
8d/L	2B-:maj
8c/	.
8B/	.
8d/J	.
8f/L	2G:dom
8a-/	.
8g/	.
8f/J	.
=53	=53
12e/L	1C:dom
12g/	.
12b-/J	.
8dd/L	.
8g/J	.
8a/L	.
8cc/	.
8b-/	.
8a/J	.
=54	=54
8g/L	1C:dom
8f/	.
8e/	.
8c/J	.
8c#/L	.
8e/	.
8B-/	.
8G/J	.
=55	=55
8c/L	1C:min
8B-/J	.
16A/LL	.
16c/	.
16e-/	.
16g/JJ	.
8dd\L	.
8cc\	.
8dd\	.
8cc\J}	.
=56	=56
2r	2C:min
*>solo3	*>solo3
{4dd\	.
4f/	2F:dom
=57	=57
2.b-\	1B-:maj
4r	.
=58||	=58||
4r	1B-:maj
8r	.
[8dd\	.
4dd\]	.
4b-\}	.
=59	=59
2r	1E-:min
{[2ee-\	.
=60	=60
4ee-\_	1E-:min
8ee-\L]	.
16dd\L	.
16dd-\JJ	.
8cc\L	.
8b\	.
8b-\	.
8g-\J	.
=61	=61
8e-/L	1B-:maj
8c/	.
8f/	.
8e-/J	.
8d/L	.
8B-/	.
8G/	.
8A/J	.
=62	=62
8c/L	1B-:maj
8B-/	.
8A/	.
8B-/J	.
8d/L	.
8f/	.
8d/	.
8B-/J	.
=63	=63
4a/}	1D:min
4r	.
2r	.
=64	=64
2r	1G:dom
4r	.
8r	.
{8f#/	.
=65	=65
12g\L	1C:min
12b-\	.
12dd\J	.
8ff\L	.
8ee-\J	.
8dd\L	.
8cc\	.
8b-\	.
8g\J	.
=66||	=66||
8e-/	1A-:dom
8r	.
8dd\L	.
8cc\J	.
8b-/L	.
8g-/	.
8e-/	.
8c/J	.
=67	=67
8d/L	1B-:maj
8B-/	.
8G/	.
8A/J	.
8c/L	.
8d/	.
8e-/	.
16f/L	.
16e-/JJ	.
=68	=68
8d/L	2D:min
8c/	.
8B/	.
8d/J	.
8f/L	2G:min
8a-/	.
8g/	.
8f/J	.
=69	=69
12e/L	1C:dom
12g/	.
12b-/J	.
8dd/L	.
8g/J	.
8a/L	.
8cc/	.
8b-/	.
8a/J	.
=70	=70
8g/L	2C:min
8f/	.
8e-/	.
8c/J	.
8f/L	2F:dom
8e-/	.
8d/	.
8c/J	.
=71	=71
12A/L	1B-:maj
12A#/	.
12B/J	.
2c/}	.
4r	.
=72	=72
{8B-/L	2C:min
8G/	.
8A/	.
8c/J	.
8e-/L	2F:dom
8g-/	.
8e-/	.
8c/J	.
=73	=73
8f/L	1B-:maj
[8d/J	.
2d/]}	.
4r	.
==	==
*-	*-
